X: 1508
T: Nikrîz Zeybek (No 2)
C: Tanburî Cemil Bey
O: Turkey
F: http://compmusic.upf.edu/node/140
N: nikriz--zeybek--aksak--2--tanburi_cemil_bey
N: makam= nikriz
N: form= zeybek
N: usul= aksak = 9/8
M: 9/8
L: 1/16
K: C _7/8B ^3/4f ^c 
Q: 1/4=126
%%MIDI tuningsystem comma53
G=f/e/ed c(3B/A/B/f/e/d c3/2B/AB G2dc d2 | \
w:   | 
G=f/e/ edc(3B/A/B/ f/e/dc3/2B/ ABG2 G2G2  | 
w:   | 
G=f/e/ed c(3B/A/B/f/e/d c3/2B/AB G2dc d2 | \
w:   | 
G=f/e/ edc(3B/A/B/ f/e/dc3/2B/ ABG2 G2G2  | 
w:   | 
A/B/c/B/B/A/A/G/ G2=f/e/d c3/2B/AB Gz/A/Bc d2 | 
w:   | 
e=f a/g/fed f/e/dc3/2B/ AB.G2 .G2.G2  | \
w:   | 
A/B/c/B/B/A/A/G/ G2=f/e/d c3/2B/AB Gz/A/Bc d2 | 
w:   | 
e=f a/g/fed f/e/dc3/2B/ AB.G2 .G2.G2  | \
w:   | 
(3g^fg(3=fef e/d3/2dc B2BA/G/ c3/2e/dc d2 | 
w:   | 
(3g^fg (3=fefe/d3/2 dcB3/2A/ G^FG2 G2G2  | \
w:   | 
(3g^fg(3=fef e/d3/2dc B2BA/G/ c3/2e/dc d2 | 
w:   | 
(3g^fg (3=fefe/d3/2 dcB3/2A/ G^FG2 G2G2  | \
w:   | 
g/=f3/2f/e3/2 e/d3/2dc B3A/G/ c3/2e/dc d2 | 
w:   | 
e=f (3agfe3/2d/ (3fedc3/2B/ ABG2 G2G2  | \
w:   | 
g/=f3/2f/e3/2 e/d3/2dc B3A/G/ c3/2e/dc d2 | 
w:   | 
e=f (3agfe3/2d/ (3fedc3/2B/ ABG2 G2G2  | \
w:   | 
A/B3/2B2 c/d3/2(3=fed c3/2B/AB G2dc d2 | 
w:   | 
A/B3/2 B2cd (3=fedcB ABG2 G2G2  | \
w:   | 
A/B3/2B2 c/d3/2(3=fed c3/2B/AB G2dc d2 | 
w:   | 
A/B3/2 B2cd (3=fedcB ABG2 G2G2  | \
w:   | 
g=ffe eddA f3/2e/dc defg a2 | 
w:   | 
^f/g3/2 g2(3agf ed=f3/2e/ dcd6  | \
w:   | 
g=ffe eddA f3/2e/dc defg a2 | 
w:   | 
^f/g3/2 g2(3agf ed=f3/2e/ dcd6  | \
w:   | 
A/B3/2B2 cd(3=fed c3/2B/AB G2dc d2 | 
w:   | 
e=f (3agfed (3fedc3/2B/ ABG2 G2G2  | \
w:   | 
A/B3/2B2 cd(3=fed c3/2B/AB G2dc d2 | 
w:   | 
e=f (3agfed (3fedc3/2B/ ABG2 G2G2  | \
w:   | 
^f/g3/2g2 (3ag=fed f3/2e/dc defg a2 | 
w:   | 
^f/g3/2 g2(3ag=f edf3/2e/ dcd2 d2d2  | \
w:   | 
^f/g3/2g2 (3ag=fed f3/2e/dc defg a2 | 
w:   | 
^f/g3/2 g2(3ag=f edf3/2e/ dcd2 d2d2  | \
w:   | 
A/B3/2B2 cd(3=fed c3/2B/AB G2dc d2 | 
w:   | 
A/B3/2 B2cd (3=fedc3/2B/ ABG2 G2G2  | \
w:   | 
A/B3/2B2 cd(3=fed c3/2B/AB G2dc d2 | 
w:   | 
A/B3/2 B2cd (3=fedc3/2B/ ABG2 G2G2  | |


